img/Icons-colored/Flower.svg

<svg xmlns="http://www.w3.org/2000/svg" width="751" height="751" fill="none" viewBox="0 0 751 751">
  <g clip-path="url(#a)">
    <path stroke="#92BD64" stroke-linejoin="round" stroke-miterlimit="100" stroke-width="11.339" d="M359.418 213.815s-67.954 58.132-129.468 52.012c-61.747-6.142-79.866-17.293-93.122-71.79-9.83-40.407-11.265-65.253 42.669-96.498 53.048-30.732 56.156-14.137 101.947 26.388 46.662 41.297 77.974 89.888 77.974 89.888Z"/>
    <path stroke="#92BD64" stroke-linejoin="round" stroke-miterlimit="100" stroke-width="11.355" d="M297.624 140.667c-31.167-77.86 19.139-117.13 67.498-121.203 62.6-5.274 161.921 70.255 77.935 149.698"/>
    <path stroke="#92BD64" stroke-linejoin="round" stroke-miterlimit="100" stroke-width="11.339" d="M503.532 310.656c-1.969 57.747-63.9 45.143-122.789 45.719-56.94.556-121.302 4.929-147.982-39.412-18.835-31.304 68.861-61.171 108.914-79.713 55.345-25.623 73.729 8.608 73.729 8.608s89.3 30.41 88.128 64.798Z"/>
    <path stroke="#92BD64" stroke-linejoin="round" stroke-miterlimit="100" stroke-width="11.437" d="M596.378 207.949c-27.649 44.066-2.857 83.179-59.022 81.518-53.587-1.586-150.036-56.822-150.036-56.822s27.001-39.163 58.643-65.989l.346-.293c6.653-5.615 13.726-11.118 20.55-15.103 83.948-49.023 171.331-9.951 129.519 56.689Z"/>
    <path fill="#92BD64" stroke="#92BD64" stroke-linejoin="round" stroke-miterlimit="100" stroke-width="9.146" d="M433.241 225.137c0 18.712-4.155 20.675-14.724 27.557-9.37 6.101-8.809 18.806-29.837 18.806-23.244 0-23.546-12.069-38.489-21.743-13.821-8.947-7.373-7.657-7.373-24.62 0-16.871-2.783-17.258 10.75-28.682 14.786-12.481 15.637-3.556 38.367 1.83 21.959 5.203 41.306-8.452 41.306 26.852Z"/>
    <path fill="#92BD64" stroke="#92BD64" stroke-linejoin="round" stroke-miterlimit="100" stroke-width="9.146" d="m326.212 213.878 15.624 3.252-11.718-18.21 14.973 4.552 2.604-20.161 14.321 5.203 14.973 5.853 1.302-21.462 12.368 25.364 16.275-14.308 11.067 20.162 18.227 5.853-9.114 13.007 11.067 16.259-14.321 1.951 13.019 9.756h-22.784l-2.604 19.511-18.228-3.902-20.18 11.056-7.161-28.616-29.294 7.154 8.463-14.959-12.369-14.308h16.275l-22.785-13.007Z"/>
    <path stroke="#92BD64" stroke-linejoin="round" stroke-miterlimit="100" stroke-width="7.559" d="M508.683 319.528c-2.162 68.826-66.952 73.535-131.629 74.221-62.538.663-115.284-13.857-144.587-66.705-20.687-37.309 62.742-72.905 106.732-95.005 60.787-30.538 80.978 10.259 80.978 10.259s89.794 36.245 88.506 77.23ZM348.196 211.476s-58.518 50.69-111.49 45.354c-53.173-5.356-68.775-15.08-80.191-62.6-8.464-35.234-16.145-69.776 30.3-97.021 45.681-26.798 54.802.549 94.234 35.887 40.183 36.01 67.147 78.38 67.147 78.38Z"/>
    <path stroke="#92BD64" stroke-linejoin="round" stroke-miterlimit="100" stroke-width="7.624" d="M596.378 207.949c-27.649 44.066-7.46 66.624-63.625 64.962-53.587-1.585-145.433-40.266-145.433-40.266s40.109-58.359 79.539-81.385c83.948-49.023 171.331-9.951 129.519 56.689Z"/>
    <path stroke="#92BD64" stroke-linejoin="round" stroke-miterlimit="100" stroke-width="7.57" d="M312.354 158.143c-31.167-77.86 4.409-134.606 52.768-138.68 53.916-4.541 135.414 49.918 103.328 115.871-4.811 9.888-12.175 20.035-22.567 30.28"/>
    <path stroke="#92BD64" stroke-linejoin="round" stroke-miterlimit="100" stroke-width="4.573" d="M348.41 202.123s-38.011 1.408-52.52-3.907c-17.261-6.322-33.605-24.497-33.605-24.497s25.591 21.046 32.449 23.933c17.529 7.379 52.295 11.139 52.295 11.139l-49.014 4.368 33.133 2.875"/>
    <path fill="#92BD64" stroke="#92BD64" stroke-linejoin="round" stroke-miterlimit="100" stroke-width="2.287" d="M382.197 203.798s-9.501-39.524-10.741-51.704c-1.177-11.56 5.207-34.469 5.207-34.469s-2.463 23.552-.651 35.119c2.696 17.202 16.899 49.431 16.899 49.431l-10.714 1.623Zm13.67 13.982s29.111 4.694 41.012 1.301c14.675-4.184 81.373-42.924 81.373-42.924s-45.82 23.128-63.796 27.966c-8.061 2.169-58.589 13.657-58.589 13.657Zm7.32 12.395s27.81 8.883 47.873 8.278c9.968-.3 46.491 6.438 46.491 6.438s-27.632-.897-37.055-.23c-21.034 1.491-57.309-14.486-57.309-14.486ZM358.17 242.58s-13.052-4.963-19.054 1.82c-3.925 4.436-34.436 42.57-34.436 42.57s17.766-15.269 23.035-20.346c5.151-4.965 30.455-24.044 30.455-24.044Zm13.246 12.36-3.673 43.527s5.269-8.115 6.895-13.852c1.369-4.832-3.222-29.675-3.222-29.675Zm10.596-9.359s-5.771-8.75 41.889 34.951c5.314 4.873 14.803 16.965 12.889 23.913-3.446 12.508-24.857 22.994-24.857 22.994s16.986-12.02 20.714-21.154c2.086-5.11-10.349-20.853-12.889-25.753-5.011-9.669-37.746-34.951-37.746-34.951Z"/>
    <path fill="#92BD64" stroke="#92BD64" stroke-linejoin="round" stroke-miterlimit="100" stroke-width="7.559" d="M387.043 394.579s12.701 64.326 15.085 101.386c2.556 39.733 16.837 79.642 36.697 114.015 8.616 14.912 15.483 28.793 27.557 41.148 21.596 22.099 40.567 59.219 69.197 70.872 21.134 8.603 74.22 13.336 74.22 13.336l-12.613 9.657s-51.968-12.235-73.818-25.174c-23.316-13.807-35.598-32.897-53.06-51.941-18.131-19.772-35.578-58.795-47.645-82.75-14.713-29.209-19.981-52.346-24.392-79.367-6-36.762-11.228-111.182-11.228-111.182Z"/>
    <path stroke="#92BD64" stroke-linejoin="round" stroke-miterlimit="100" stroke-width="7.559" d="M466.84 657.271s18.124 11.734 35.859 9.58c12.79-1.554 24.933-15.624 32.031-21.492 11.912-9.848 47.539-95.743 47.539-95.743s-61.194 52.229-72.583 59.718c-15.832 10.41-42.846 47.937-42.846 47.937Z"/>
    <path fill="#92BD64" stroke="#92BD64" stroke-linejoin="round" stroke-miterlimit="100" stroke-width="3.78" d="M469.804 657.895s22.527-6.425 33.257-14.521c7.36-5.553 29.095-28.482 29.095-28.482s-20.365 24.209-28.257 29.729c-4.804 3.361-18.866 11.466-25.604 14.204-7.522 3.056-8.491-.93-8.491-.93Z"/>
    <path stroke="#92BD64" stroke-linejoin="round" stroke-miterlimit="100" stroke-width="7.559" d="M415.314 564.386s-44.859-56.567-77.089-72.417c-31.742-15.612-137.756-12.459-137.756-12.459s63.577 17.261 93.489 43.036c18.719 16.128 30.471 34.854 43.787 41.155 30.268 14.324 77.569.685 77.569.685Z"/>
    <path fill="#92BD64" stroke="#92BD64" stroke-linejoin="round" stroke-miterlimit="100" stroke-width="3.78" d="M412.771 560.89s.785 4.111-10.371 1.169c-13.668-3.604-40.499-14.914-49.945-21.813-7.128-5.206-8.908-15.725-15.787-21.257-5.448-4.382-40.524-17.604-40.524-17.604s35.613 12.881 41.235 17.334c6.798 5.384 9.644 14.358 16.599 19.537 17.027 12.679 58.793 22.634 58.793 22.634Z"/>
  </g>
  <defs>
    <clipPath id="a">
      <path fill="#fff" d="M0 0h751v751H0z"/>
    </clipPath>
  </defs>
</svg>

<svg width="751" height="751" viewBox="0 0 751 751" fill="none" xmlns="http://www.w3.org/2000/svg">
<g clip-path="url(#clip0_249_1492)">
<mask id="mask0_249_1492" style="mask-type:luminance" maskUnits="userSpaceOnUse" x="0" y="0" width="751" height="751">
<path d="M0 0H751V751H0V0Z" fill="white"/>
</mask>
<g mask="url(#mask0_249_1492)">
<path d="M359.418 213.815C359.418 213.815 291.464 271.947 229.95 265.827C168.203 259.685 150.084 248.534 136.828 194.037C126.998 153.63 125.563 128.784 179.497 97.5389C232.545 66.8069 235.653 83.4019 281.444 123.927C328.106 165.224 359.418 213.815 359.418 213.815Z" stroke="#587C30" stroke-width="11.339" stroke-miterlimit="100" stroke-linejoin="round"/>
<path d="M297.624 140.667C266.457 62.8068 316.763 23.5368 365.122 19.4638C427.722 14.1898 527.043 89.7188 443.057 169.162" stroke="#587C30" stroke-width="11.355" stroke-miterlimit="100" stroke-linejoin="round"/>
<path d="M503.532 310.656C501.563 368.403 439.632 355.799 380.743 356.375C323.803 356.931 259.441 361.304 232.761 316.963C213.926 285.659 301.622 255.792 341.675 237.25C397.02 211.627 415.404 245.858 415.404 245.858C415.404 245.858 504.704 276.268 503.532 310.656Z" stroke="#587C30" stroke-width="11.339" stroke-miterlimit="100" stroke-linejoin="round"/>
<path d="M596.378 207.949C568.729 252.015 593.521 291.128 537.356 289.467C483.769 287.881 387.32 232.645 387.32 232.645C387.32 232.645 414.321 193.482 445.963 166.656L446.309 166.363C452.962 160.748 460.035 155.245 466.859 151.26C550.807 102.237 638.19 141.309 596.378 207.949Z" stroke="#587C30" stroke-width="11.437" stroke-miterlimit="100" stroke-linejoin="round"/>
<path d="M433.241 225.137C433.241 243.849 429.086 245.812 418.517 252.694C409.147 258.795 409.708 271.5 388.68 271.5C365.436 271.5 365.134 259.431 350.191 249.757C336.37 240.81 342.818 242.1 342.818 225.137C342.818 208.266 340.035 207.879 353.568 196.455C368.354 183.974 369.205 192.899 391.935 198.285C413.894 203.488 433.241 189.833 433.241 225.137Z" fill="#587C30" stroke="#587C30" stroke-width="9.146" stroke-miterlimit="100" stroke-linejoin="round"/>
<path d="M326.212 213.878L341.836 217.13L330.118 198.92L345.091 203.472L347.695 183.311L362.016 188.514L376.989 194.367L378.291 172.905L390.659 198.27L406.934 183.961L418.001 204.123L436.228 209.976L427.114 222.983L438.181 239.242L423.86 241.193L436.879 250.949H414.095L411.491 270.46L393.263 266.558L373.083 277.614L365.922 248.998L336.628 256.152L345.091 241.193L332.722 226.885H348.997L326.212 213.878Z" fill="#587C30" stroke="#587C30" stroke-width="9.146" stroke-miterlimit="100" stroke-linejoin="round"/>
<path d="M508.683 319.528C506.521 388.354 441.731 393.063 377.054 393.749C314.516 394.412 261.77 379.892 232.467 327.044C211.78 289.735 295.209 254.139 339.199 232.039C399.986 201.501 420.177 242.298 420.177 242.298C420.177 242.298 509.971 278.543 508.683 319.528ZM348.196 211.476C348.196 211.476 289.678 262.166 236.706 256.83C183.533 251.474 167.931 241.75 156.515 194.23C148.051 158.996 140.37 124.454 186.815 97.2089C232.496 70.4109 241.617 97.7579 281.049 133.095C321.232 169.105 348.196 211.476 348.196 211.476Z" stroke="#587C30" stroke-width="7.559" stroke-miterlimit="100" stroke-linejoin="round"/>
<path d="M596.378 207.949C568.729 252.015 588.918 274.573 532.753 272.911C479.166 271.326 387.32 232.645 387.32 232.645C387.32 232.645 427.429 174.286 466.859 151.26C550.807 102.237 638.19 141.309 596.378 207.949Z" stroke="#587C30" stroke-width="7.624" stroke-miterlimit="100" stroke-linejoin="round"/>
<path d="M312.354 158.143C281.187 80.2829 316.763 23.5369 365.122 19.4629C419.038 14.9219 500.536 69.3809 468.45 135.334C463.639 145.222 456.275 155.369 445.883 165.614" stroke="#587C30" stroke-width="7.57" stroke-miterlimit="100" stroke-linejoin="round"/>
<path d="M348.409 202.123C348.409 202.123 310.399 203.531 295.889 198.216C278.628 191.894 262.284 173.719 262.284 173.719C262.284 173.719 287.875 194.765 294.734 197.652C312.262 205.031 347.028 208.791 347.028 208.791L298.015 213.159L331.148 216.034" stroke="#587C30" stroke-width="4.573" stroke-miterlimit="100" stroke-linejoin="round"/>
<path d="M382.197 203.798C382.197 203.798 372.696 164.274 371.456 152.094C370.279 140.533 376.663 117.624 376.663 117.624C376.663 117.624 374.2 141.176 376.012 152.744C378.708 169.946 392.911 202.175 392.911 202.175L382.197 203.798ZM395.867 217.78C395.867 217.78 424.978 222.474 436.879 219.081C451.554 214.897 518.252 176.157 518.252 176.157C518.252 176.157 472.432 199.285 454.456 204.123C446.395 206.292 395.867 217.78 395.867 217.78ZM403.187 230.175C403.187 230.175 430.997 239.058 451.06 238.453C461.028 238.153 497.551 244.891 497.551 244.891C497.551 244.891 469.919 243.994 460.496 244.661C439.462 246.152 403.187 230.175 403.187 230.175ZM358.17 242.58C358.17 242.58 345.118 237.617 339.116 244.4C335.191 248.836 304.68 286.97 304.68 286.97C304.68 286.97 322.446 271.701 327.715 266.624C332.866 261.659 358.17 242.58 358.17 242.58ZM371.416 254.94L367.743 298.467C367.743 298.467 373.012 290.352 374.638 284.615C376.007 279.783 371.416 254.94 371.416 254.94ZM382.012 245.581C382.012 245.581 376.241 236.831 423.901 280.532C429.215 285.405 438.704 297.497 436.79 304.445C433.344 316.953 411.933 327.439 411.933 327.439C411.933 327.439 428.919 315.419 432.647 306.285C434.733 301.175 422.298 285.432 419.758 280.532C414.747 270.863 382.012 245.581 382.012 245.581Z" fill="#587C30" stroke="#587C30" stroke-width="2.287" stroke-miterlimit="100" stroke-linejoin="round"/>
<path d="M387.043 394.579C387.043 394.579 399.744 458.905 402.128 495.965C404.684 535.698 418.965 575.607 438.825 609.98C447.441 624.892 454.308 638.773 466.382 651.128C487.978 673.227 506.949 710.347 535.579 722C556.713 730.603 609.799 735.336 609.799 735.336L597.186 744.993C597.186 744.993 545.218 732.758 523.368 719.819C500.052 706.012 487.77 686.922 470.308 667.878C452.177 648.106 434.73 609.083 422.663 585.128C407.95 555.919 402.682 532.782 398.271 505.761C392.271 468.999 387.043 394.579 387.043 394.579Z" fill="#587C30" stroke="#587C30" stroke-width="7.559" stroke-miterlimit="100" stroke-linejoin="round"/>
<path d="M466.84 657.271C466.84 657.271 484.964 669.006 502.699 666.851C515.489 665.297 527.632 651.227 534.73 645.359C546.642 635.511 582.269 549.617 582.269 549.617C582.269 549.617 521.075 601.845 509.686 609.334C493.854 619.744 466.84 657.271 466.84 657.271Z" stroke="#587C30" stroke-width="7.559" stroke-miterlimit="100" stroke-linejoin="round"/>
<path d="M469.804 657.895C469.804 657.895 492.331 651.47 503.061 643.374C510.421 637.822 532.156 614.892 532.156 614.892C532.156 614.892 511.791 639.101 503.899 644.621C499.095 647.982 485.033 656.088 478.295 658.825C470.773 661.881 469.804 657.895 469.804 657.895Z" fill="#587C30" stroke="#587C30" stroke-width="3.78" stroke-miterlimit="100" stroke-linejoin="round"/>
<path d="M415.314 564.387C415.314 564.387 370.455 507.819 338.225 491.969C306.483 476.358 200.469 479.51 200.469 479.51C200.469 479.51 264.046 496.772 293.958 522.546C312.677 538.674 324.429 557.4 337.745 563.701C368.013 578.025 415.314 564.387 415.314 564.387Z" stroke="#587C30" stroke-width="7.559" stroke-miterlimit="100" stroke-linejoin="round"/>
<path d="M412.771 560.89C412.771 560.89 413.556 565.001 402.4 562.059C388.732 558.455 361.901 547.145 352.455 540.246C345.327 535.04 343.547 524.521 336.668 518.989C331.22 514.607 296.144 501.385 296.144 501.385C296.144 501.385 331.757 514.266 337.379 518.719C344.177 524.103 347.023 533.077 353.978 538.256C371.005 550.935 412.771 560.89 412.771 560.89Z" fill="#587C30" stroke="#587C30" stroke-width="3.78" stroke-miterlimit="100" stroke-linejoin="round"/>
</g>
</g>
<defs>
<clipPath id="clip0_249_1492">
<rect width="751" height="751" fill="white"/>
</clipPath>
</defs>
</svg>
